X:1
T:Bethel
T:C Major Anonymous, Before 1802
T:Isaac Watts, 1717 (Psalm 102, Part 2)                86. 86. (C. M.)
T:Transcribed from Kentucky Harmony, 1816.
%%score [ 1 2 3 4 ]
L:1/8
M:4/4
K:C
V:1 treble nm="Tr." snm="Tr."
V:2 treble nm="C." snm="C."
V:3 treble-8 nm="T." snm="T."
V:4 bass nm="B." snm="B."
V:1
"_1. Let  Zion  and her sons rejoice,      Be –  hold    the    promised hour;     Her  God  hath  heard  her mourning  voice,  And comes t'ex–alt his power.\n2. Her dust  and ruins that remain     Are    pre– cious    in   our   eyes;      Those  ru–ins     shall   be    built   a  –  gain,  And all  that  dust  shall rise.\n" c4 G2 F2 | %1
 E4 G4 | G2 c2 c4- | c4 (A2 c2) | (e2 B2) (A2 c2) | f2 ef g4- | g4 d4 | ed cB A4 | c4 A2 c2 | d8 | %10
 (g2 e2) (c2 A2) | A4 c2 d2 | c8 |] %13
V:2
"_3. The Lord will raise Jerusalem       And    stand    in      glo–ry   there;    Na – tions shall  bow  be  –  fore  his  name,  And  kings  attend  with fear.\n4. He sits a sovereign on his throne,  With   pi   –    ty      in   his   eyes;     He   hears  the   dy –  ing  prisoners'  groan,   And   sees  their  sighs  arise.\n" E4 E2 D2 | %1
 G4 G4 | G2 F2 E4- | E4 A4 | (c2 G2) A4 | c2 c2 B4- | B4 d4 | cB AG A4 | G4 D2 EF | G8 | %10
 E4 (E2 A2) | A4 G2 G2 | E8 |] %13
V:3
"_5. He frees the souls condemned to death, And when his saints complain,  It    shan't   be  said, that  pray – ing  breath   Was   e – ver spent  in  vain.\n6. This shall be known when we are dead, And  left  on  long  re – cord;     That  a  –  ges  yet   un – born  may  read,   And trust, and praise the Lord.\n" G4 G2 A2 | %1
 c4 d4 | c2 A2 G4- | G4 e4 | g4 e4 | c2 e2 d4- | d4 f4 | ed cd e4 | (g3 e) d2 cA | G8 | %10
 (G2 A2) c4 | d4 e2 d2 | c8 |] %13
V:4
"_____________________________________________________________________________________________________________\nSometimes attributed to Lucius or Amzi Chapin, probably not written by either (Nikos Pappas).\nFirst published in \nPatterson's Church Music\n, 1813, and \nWyeth's Repository, Part  Second\n, 1813.\n" C,4 C,2 D,2 | %1
 C,4 D,4 | E,2 D,2 C,4- | C,4 (D,2 E,2) | C4 A,4 | A,2 F,2 G,4- | G,4 D,4 | E,D, C,D, E,4 | %8
 G,4 D,2 E,F, | G,8 | C,4 F,4 | D,4 E,2 G,2 | C,8 |] %13

